X: 10132
T: RATTLING ROARING WILLIE
Q: "Sprightly."
%R: slip-jig
B: W. Hamilton "Universal Tune-Book" Vol. 1 Glasgow 1844 p.13 #2
S: http://imslp.org/wiki/Hamilton's_Universal_Tune-Book_(Various)
Z: 2016 John Chambers <jc:trillian.mit.edu>
M: 9/8
L: 1/8
K: F
% - - - - - - - - - - - - - - - - - - - - - - - - -
c |\
A2F FGF Acd | _e2B GEG B2c |\
A2F FGF Acd | fef A2B c2(d/e/) |\
fef cAF Acd | _e2B GEG B2d |\
cAc d2c dfc | AFA GEG F2 |]
% - - - - - - - - - - - - - - - - - - - - - - - - -

%%sep 1 1 500
%%sep 1 1 500

